!!!OTL: "Der Zimmergesell" ES WAR EINMAL EIN ZIMMERGESELL
!!!ARE: Europa, Mitteleuropa, Deutschland, Rhein
!!!SCT: Z1026
!!!YEM: Copyright 1995, estate of Helmut Schaffrath.
**kern
*ICvox
*Ivox
*M2/4
*k[]
*a:
{8e
=1
8a
8ccn
8b
8a
=2
8a
16g#
16g#
8g#}
{8e
=3
8a
8b
8ccn
8dd
=4
4b
8r}
{8a
=5
8ccn
8b
8ccn
8a
=6
8dd
16dd
16dd
4ee}
=7
{8.a
16g#
8ccn
8a
=8
8g#
8fn
8e}
{8b
=9
8ccn
8b
8ccn
16a
16a
=10
8dd
8dd
8ee}
{8ccn
=11
8b
8a
8g#
16b
16b
=12
4a
8r}
==
!!!AGN: Romanze, Ballade, Handwerker - Lied
!!!ONB: ESAC (Essen Associative Code) Database: ZUCCAL
!!!AMT: simple duple
!!!AIN: vox
!!!EED: Helmut Schaffrath
!!!EEV: 1.0
*-
